src/assets/duotone/MessageProgramming.svg

<svg width="24" height="24" viewBox="0 0 24 24"  xmlns="http://www.w3.org/2000/svg">
<path opacity="0.4" d="M8.5 18.9697H8C4 18.9697 2 17.9697 2 12.9697V7.96973C2 3.96973 4 1.96973 8 1.96973H16C20 1.96973 22 3.96973 22 7.96973V12.9697C22 16.9697 20 18.9697 16 18.9697H15.5C15.19 18.9697 14.89 19.1198 14.7 19.3698L13.2 21.3698C12.54 22.2498 11.46 22.2498 10.8 21.3698L9.29999 19.3698C9.13999 19.1498 8.78 18.9697 8.5 18.9697Z" />
<path d="M7.99994 13.4497C7.80994 13.4497 7.61994 13.3796 7.46994 13.2296L5.46994 11.2296C5.17994 10.9396 5.17994 10.4596 5.46994 10.1696L7.46994 8.16965C7.75994 7.87965 8.23994 7.87965 8.52994 8.16965C8.81994 8.45965 8.81994 8.93965 8.52994 9.22965L7.05994 10.6997L8.52994 12.1696C8.81994 12.4596 8.81994 12.9396 8.52994 13.2296C8.37994 13.3796 8.18994 13.4497 7.99994 13.4497Z" />
<path d="M15.9999 13.4497C15.8099 13.4497 15.6199 13.3796 15.4699 13.2296C15.1799 12.9396 15.1799 12.4596 15.4699 12.1696L16.9399 10.6997L15.4699 9.22965C15.1799 8.93965 15.1799 8.45965 15.4699 8.16965C15.7599 7.87965 16.2399 7.87965 16.5299 8.16965L18.5299 10.1696C18.8199 10.4596 18.8199 10.9396 18.5299 11.2296L16.5299 13.2296C16.3799 13.3796 16.1899 13.4497 15.9999 13.4497Z" />
<path d="M10.9999 13.7798C10.8999 13.7798 10.7999 13.7597 10.6999 13.7197C10.3199 13.5597 10.1399 13.1197 10.3099 12.7297L12.3099 8.05975C12.4699 7.67975 12.9099 7.49973 13.2999 7.66973C13.6799 7.82973 13.8599 8.26972 13.6899 8.65972L11.6899 13.3298C11.5699 13.6098 11.2899 13.7798 10.9999 13.7798Z" />
</svg>

<?xml version="1.0" encoding="UTF-8"?>
<svg width="24" height="24" viewBox="0 0 24 24" xmlns="http://www.w3.org/2000/svg">
 <path d="m8.5 18.97h-0.5c-4 0-6-1-6-6v-5c0-4 2-6 6-6h8c4 0 6 2 6 6v5c0 4-2 6-6 6h-0.5c-0.31 0-0.61 0.1501-0.8 0.4001l-1.5 2c-0.66 0.88-1.74 0.88-2.4 0l-1.5-2c-0.16-0.22-0.51999-0.4001-0.79999-0.4001z" opacity=".4"/>
 <path d="m7.9999 13.45c-0.19 0-0.38-0.0701-0.53-0.2201l-2-2c-0.29-0.29-0.29-0.77 0-1.06l2-2c0.29-0.29 0.77-0.29 1.06 0s0.29 0.77 0 1.06l-1.47 1.47 1.47 1.4699c0.29 0.29 0.29 0.77 0 1.06-0.15 0.15-0.34 0.2201-0.53 0.2201z"/>
 <path d="m16 13.45c-0.19 0-0.38-0.0701-0.53-0.2201-0.29-0.29-0.29-0.77 0-1.06l1.47-1.4699-1.47-1.47c-0.29-0.29-0.29-0.77 0-1.06s0.77-0.29 1.06 0l2 2c0.29 0.29 0.29 0.77 0 1.06l-2 2c-0.15 0.15-0.34 0.2201-0.53 0.2201z"/>
 <path d="m11 13.78c-0.1 0-0.2-0.0201-0.3-0.0601-0.38-0.16-0.56-0.6-0.39-0.99l2-4.67c0.16-0.38 0.6-0.56002 0.99-0.39002 0.38 0.16 0.56 0.59999 0.39 0.98999l-2 4.6701c-0.12 0.28-0.4 0.45-0.69 0.45z"/>
</svg>
